X:1
T:Engelberg
T:Charles Villiers Stanford
T:Engelberg
C:Charles Villiers Stanford
%%score 1 ( 2 3 )
L:1/8
M:4/4
K:G
V:1 treble nm="P1" snm="Soprano"
V:2 bass nm="P2" snm="Bass"
V:3 bass 
V:1
"^Editor: John Henry Fowler" z2 D2 G2 B2 | A3 D E2 F2 | G2 E2 D4- | D2 D2 d2 c2 | B3 A G2 B2 | %5
 A2 E2 D4- | D2 A2 B2 d2 | d3 G A2 c2 | B2 A2 B4- | B2 cB cB A2 | B2 c2 d4- | d8 |] %12
V:2
 [G,B,D]8 | [A,D]2 z2 [C,A,D]4 | [B,,G,]2 C,2 [B,,D,]2 A,,2 | D,2 A,2 G,2 A,2 | %4
 [G,,D,]2 A,,2 B,,2 [G,,E,]2 | [F,,F,]2 [A,,G,]2 D,2 F,2 | [D,=F,]6 [G,,G,]2 | [C,G,]4 A,,2 F,2 | %8
 [E,G,B,]2 [A,C]2 [G,B,]2 D,2 | [C,G,]3 B, CB, [A,E]2 | [G,B,D]2 [E,G,A,E]2 [D,G,B,D]4- | %11
 [D,G,B,D]8 |] %12
V:3
 [G,,D,]8 | [G,,D,]2 F,,2 z4 | x8 | G,,2 F,,2 E,,2 F,,2 | x8 | x8 | x8 | x8 | x8 | %9
 [B,EG]2 A,B,, A,, z [C,G,]2 | [G,,D,]2 z2 z4 | x8 |] %12

